X: 1
T: Seann Truibhas Uilleachain
C:
R: reel
S: printed copy of unknown origin
S: from Alasdair Fraser, Legacy of the Scottish Fiddle Vol.1
B: Version from the Concord Slow Scottish Jam session binder 2.
Z: 2015 John Chambers <jc:trillian.mit.edu>
M: C|
L: 1/8
K: Dm
|: A,DDF E2A,E | F2ED ECCE |\
[1 A,DDF E2A,E | F2ED CA,A,B, :|\
[2 A,DDF E2A,A | GFED CA,A,2 |]
|: AcAF GcGE | F2ED ECC2 |\
[1 AcAF GcGE | F2ED CA,A,2 :|\
[2 Ac=Bc GcEc | DFED CA,A,2 |]
